assets/page-header/logo.svg

<svg width="136" height="31" viewBox="0 0 136 31" fill="none" xmlns="http://www.w3.org/2000/svg">
<g clip-path="url(#clip0_1642_1539)">
<path fill-rule="evenodd" clip-rule="evenodd" d="M14.8018 0.0867008C17.9453 0.0121626 21.0333 0.922382 23.6339 2.68995C26.2344 4.45751 28.2172 6.99395 29.305 9.94427C30.3927 12.8946 30.5309 16.1112 29.7002 19.144C29.3326 20.4861 27.9466 21.2761 26.6045 20.9085C25.2623 20.5409 24.4723 19.1548 24.8399 17.8127C25.393 15.7935 25.301 13.6518 24.5768 11.6875C23.8525 9.72315 22.5324 8.03446 20.8011 6.85771C19.0698 5.68095 17.0139 5.075 14.9213 5.12462C12.8286 5.17424 10.8038 5.87695 9.13022 7.13445C7.45662 8.39195 6.21796 10.1413 5.58765 12.1378C4.95734 14.1342 4.96692 16.2778 5.61506 18.2686C6.26319 20.2593 7.51744 21.9976 9.20222 23.24C10.887 24.4825 12.918 25.1671 15.011 25.198C16.4024 25.2186 17.5137 26.3632 17.4932 27.7546C17.4726 29.1461 16.328 30.2574 14.9366 30.2368C11.7926 30.1904 8.74184 29.162 6.21121 27.2958C3.68059 25.4295 1.79675 22.8187 0.823286 19.8287C-0.150178 16.8387 -0.164569 13.6192 0.782124 10.6206C1.72882 7.62203 3.58924 4.99447 6.10308 3.10564L7.61665 5.12004L6.10308 3.10564C8.61692 1.2168 11.6584 0.161239 14.8018 0.0867008Z" fill="#121920"/>
<path d="M26.4992 24.9706C26.4992 27.0804 24.7888 28.7908 22.6789 28.7908C20.5691 28.7908 18.8587 27.0804 18.8587 24.9706C18.8587 22.8608 20.5691 21.1504 22.6789 21.1504C24.7888 21.1504 26.4992 22.8608 26.4992 24.9706Z" fill="#F95A59"/>
<path fill-rule="evenodd" clip-rule="evenodd" d="M60.8326 24.1173H55.8529L55.1493 23.1971C54.175 23.576 53.3089 23.8466 52.5512 24.0631C51.7934 24.2255 50.9815 24.3338 50.0613 24.3338C47.0302 24.3338 44.6486 23.576 42.9706 22.1145C41.1844 20.599 40.3184 18.2715 40.3184 15.2945C40.3184 12.2634 41.1303 9.93591 42.7 8.36622C44.3238 6.79653 46.7595 5.98462 50.0613 5.98462C53.2548 5.98462 55.6905 6.85066 57.3685 8.5286C58.8299 9.99004 59.5336 11.8845 59.5336 14.1578C59.5336 15.8358 59.4794 17.0807 59.3171 17.8385C59.1006 19.0293 58.5593 20.166 57.8015 21.1944L60.8326 24.1173ZM55.1493 15.1321C55.1493 13.5083 54.8245 12.2093 54.1208 11.1808C53.2548 9.88178 51.8475 9.23226 50.0072 9.23226C48.2751 9.23226 46.9219 9.7194 46.0559 10.7478C45.1899 11.7221 44.7568 13.1835 44.7568 15.078C44.7568 17.189 45.244 18.7587 46.2724 19.7329C47.1926 20.599 48.5457 21.032 50.3319 21.032C51.9558 21.032 53.1466 20.5449 53.9585 19.5706C54.7704 18.5421 55.1493 17.0807 55.1493 15.1321Z" fill="#F95A59"/>
<path fill-rule="evenodd" clip-rule="evenodd" d="M79.6152 18.5421C79.6152 20.1118 79.0739 21.4109 78.0455 22.4934C77.0171 23.576 75.718 24.0631 74.0942 24.0631H61.6449V20.8696H71.9833C72.6869 20.8696 73.2823 20.7072 73.7153 20.3825C74.2566 20.0036 74.5272 19.5164 74.5272 18.8669C74.5272 17.3513 73.4447 16.5936 71.3337 16.5936H66.1375C64.6219 16.5936 63.3229 16.1064 62.1862 15.1863C61.0495 14.2661 60.5083 13.0753 60.5083 11.6139C60.5083 10.0442 61.0495 8.74511 62.1862 7.77082C63.2688 6.79653 64.7302 6.30939 66.5705 6.30939H78.5326V9.34051H67.9237C67.4366 9.34051 66.9494 9.55702 66.5164 9.93591C65.9751 10.3148 65.7586 10.8019 65.7586 11.3432C65.7586 11.9386 65.9751 12.4799 66.4623 12.8588C66.9494 13.2918 67.4907 13.4542 68.1402 13.4542H73.8777C75.6639 13.4542 77.0712 13.9413 78.0996 14.8615C79.128 15.7817 79.6152 17.0266 79.6152 18.5421Z" fill="#F95A59"/>
<path fill-rule="evenodd" clip-rule="evenodd" d="M100.075 15.1321C100.075 18.5963 99.1009 21.032 97.2065 22.5476C95.6368 23.7384 93.3635 24.3338 90.4406 24.3338C87.1388 24.3338 84.7031 23.6301 83.1334 22.2769C81.4013 20.7614 80.5353 18.3256 80.5353 14.9698C80.5353 12.2093 81.2931 10.0442 82.8628 8.52861C84.5407 6.85067 87.0306 6.03876 90.3865 6.03876C94.0671 6.03876 96.6111 6.85067 98.1267 8.42036C99.4257 9.82767 100.075 12.0469 100.075 15.1321ZM95.5285 15.0239C95.5285 13.2918 95.0955 11.8845 94.2836 10.8561C93.3635 9.71941 91.9561 9.12401 90.1699 9.12401C88.3837 9.12401 87.0306 9.71941 86.1104 10.9643C85.3526 11.9928 84.9737 13.3459 84.9737 14.9698C84.9737 16.8642 85.2985 18.2715 85.8939 19.1917C86.7599 20.4366 88.2755 21.0861 90.603 21.0861C92.5515 21.0861 93.9047 20.4907 94.6625 19.2458C95.2579 18.3798 95.5285 16.9183 95.5285 15.0239Z" fill="#F95A59"/>
<path fill-rule="evenodd" clip-rule="evenodd" d="M117.883 16.6477H105.65V24.009H101.266V13.1294C101.266 12.4799 101.374 11.7221 101.645 10.9102C102.132 9.44877 103.052 8.36622 104.405 7.60844C105.975 6.74241 108.573 6.30939 112.145 6.30939C119.777 6.30939 127.409 6.30939 135.041 6.30939V9.28639H128.438V24.009H124.324V9.28639C120.102 9.28639 116.097 9.23226 111.875 9.23226C110.251 9.23226 109.114 9.34051 108.465 9.5029C107.328 9.77353 106.57 10.4231 106.083 11.3432C105.704 12.0469 105.542 12.8047 105.542 13.6707H117.883V16.6477Z" fill="#F95A59"/>
</g>
<defs>
<clipPath id="clip0_1642_1539">
<rect width="135.041" height="30.3184" fill="white"/>
</clipPath>
</defs>
</svg>

<svg xmlns="http://www.w3.org/2000/svg" width="136" height="31" fill="none"><g clip-path="url(#a)"><path fill="#121920" fill-rule="evenodd" d="M14.802.087A15.076 15.076 0 0 1 29.7 19.144a2.52 2.52 0 1 1-4.86-1.331A10.04 10.04 0 0 0 14.92 5.125a10.036 10.036 0 0 0-9.306 13.144 10.038 10.038 0 0 0 9.396 6.929 2.52 2.52 0 0 1-.074 5.039A15.076 15.076 0 0 1 .782 10.62a15.078 15.078 0 0 1 5.321-7.515L7.617 5.12 6.103 3.106a15.076 15.076 0 0 1 8.699-3.02Z" clip-rule="evenodd"/><path fill="#F95A59" d="M26.5 24.97a3.82 3.82 0 1 1-7.641 0 3.82 3.82 0 0 1 7.64 0Z"/><path fill="#F95A59" fill-rule="evenodd" d="M60.833 24.117h-4.98l-.704-.92c-.974.379-1.84.65-2.598.866-.758.163-1.57.27-2.49.27-3.03 0-5.412-.757-7.09-2.218-1.787-1.516-2.653-3.843-2.653-6.82 0-3.032.812-5.36 2.382-6.929 1.624-1.57 4.06-2.381 7.361-2.381 3.194 0 5.63.866 7.307 2.544 1.462 1.461 2.166 3.355 2.166 5.629 0 1.678-.055 2.923-.217 3.68-.216 1.191-.758 2.328-1.516 3.356l3.032 2.923Zm-5.684-8.985c0-1.624-.325-2.923-1.028-3.951-.866-1.3-2.274-1.949-4.114-1.949-1.732 0-3.085.487-3.951 1.516-.866.974-1.3 2.436-1.3 4.33 0 2.111.488 3.68 1.516 4.655.92.866 2.274 1.299 4.06 1.299 1.624 0 2.815-.487 3.627-1.461.811-1.029 1.19-2.49 1.19-4.439ZM79.615 18.542c0 1.57-.541 2.869-1.57 3.951-1.028 1.083-2.327 1.57-3.95 1.57h-12.45V20.87h10.338c.704 0 1.3-.163 1.732-.488.542-.378.812-.866.812-1.515 0-1.516-1.082-2.273-3.193-2.273h-5.197c-1.515 0-2.814-.488-3.95-1.408-1.137-.92-1.679-2.11-1.679-3.572 0-1.57.541-2.869 1.678-3.843 1.083-.974 2.544-1.462 4.384-1.462h11.963v3.032h-10.61c-.486 0-.974.216-1.407.595-.54.379-.757.866-.757 1.407 0 .596.216 1.137.703 1.516.487.433 1.029.595 1.678.595h5.738c1.786 0 3.193.487 4.222 1.407 1.028.92 1.515 2.166 1.515 3.681ZM100.075 15.132c0 3.464-.974 5.9-2.868 7.416-1.57 1.19-3.843 1.786-6.766 1.786-3.302 0-5.738-.704-7.308-2.057-1.732-1.516-2.598-3.951-2.598-7.307 0-2.76.758-4.926 2.328-6.441 1.678-1.678 4.168-2.49 7.523-2.49 3.681 0 6.225.812 7.74 2.381 1.3 1.408 1.949 3.627 1.949 6.712Zm-4.547-.108c0-1.732-.433-3.14-1.244-4.168-.92-1.137-2.328-1.732-4.114-1.732s-3.14.595-4.06 1.84c-.757 1.029-1.136 2.382-1.136 4.006 0 1.894.325 3.301.92 4.222.866 1.245 2.381 1.894 4.709 1.894 1.949 0 3.302-.595 4.06-1.84.595-.866.865-2.328.865-4.222ZM117.883 16.648H105.65v7.361h-4.384v-10.88c0-.65.108-1.407.379-2.219.487-1.461 1.407-2.544 2.76-3.302 1.57-.866 4.168-1.299 7.74-1.299h22.896v2.977h-6.603V24.01h-4.114V9.286c-4.222 0-8.227-.054-12.449-.054-1.624 0-2.761.109-3.41.27-1.137.272-1.895.921-2.382 1.841-.379.704-.541 1.462-.541 2.328h12.341v2.977Z" clip-rule="evenodd"/></g><defs><clipPath id="a"><path fill="#fff" d="M0 0h135.041v30.318H0z"/></clipPath></defs></svg>
